X:1
T:Autumn Leaves
C:J. Kosma
Z:Copyright © www.realbook.site
L:1/4
M:4/4
I:linebreak $
K:Gmin
V:1 treble nm=" " snm=" "
V:1
 x G A B |:"Cm7" e4- |"F7" e F G A |"Bbmaj7" d2 d2- |"Ebmaj7" d E F G |$"Am7b5" c4- |1 %6
"D7" c D =E ^F |"Gm7" B4 | z G A B :|2$"D7" c A c B ||"Gm" G4- | G2 ^F G ||$"D7" A D A2- | %13
 A A G A |"Gm" B4- | B B A B |$"Cm7" c3 F |"F7" f3 e |"Bbmaj7" d4- | d z ^c d |$"Am7b5" e e =c c | %21
"D7" A3 e |"Gm" d2 d2- | d3 G |$"Am7b5" c3 B |"D7" A2 B D |"Gm" G4- | G4 |] %28

